Sources/FrostedUI/Resources/Icons.xcassets/tiktokFilled16.imageset/tik-tok-filled-16.svg

<svg
  width="16"
  height="16"
  viewBox="0 0 16 16"
  fill="none"
  xmlns="http://www.w3.org/2000/svg"
  data-fui-icon="true"
>
  <path
    d="M14.625 6.49219H14.5977C13.3398 6.49219 12.1914 6.10938 11.2617 5.42578V10.3203C11.2617 12.7812 9.26562 14.75 6.80469 14.75C4.34375 14.75 2.375 12.7812 2.375 10.3203C2.375 7.85938 4.34375 5.86328 6.80469 5.86328C7.02344 5.86328 7.21484 5.89062 7.43359 5.91797V8.37891C7.21484 8.29688 7.02344 8.26953 6.80469 8.26953C5.68359 8.26953 4.75391 9.19922 4.75391 10.3203C4.75391 11.4414 5.68359 12.3711 6.80469 12.3711C7.92578 12.3711 8.85547 11.4414 8.85547 10.3203V0.75H11.2617C11.2617 0.777344 11.2617 0.777344 11.2617 0.804688C11.2617 0.996094 11.2617 1.1875 11.3164 1.37891C11.4805 2.28125 12.0273 3.07422 12.793 3.56641C13.3125 3.92188 13.9414 4.11328 14.5977 4.11328C14.5977 4.11328 14.5977 4.11328 14.625 4.11328V6.49219Z"
    fill="currentColor"
  />
</svg>

<svg xmlns="http://www.w3.org/2000/svg" width="16" height="16" fill="none" data-fui-icon="true" viewBox="0 0 16 16"><path fill="currentColor" d="M14.625 6.492h-.027c-1.258 0-2.407-.383-3.336-1.066v4.894c0 2.461-1.996 4.43-4.457 4.43a4.41 4.41 0 0 1-4.43-4.43c0-2.46 1.969-4.457 4.43-4.457.218 0 .41.028.629.055v2.46a1.7 1.7 0 0 0-.63-.108c-1.12 0-2.05.93-2.05 2.05 0 1.121.93 2.051 2.05 2.051 1.122 0 2.051-.93 2.051-2.05V.75h2.407v.055c0 .191 0 .382.054.574.164.902.711 1.695 1.477 2.187.52.356 1.148.547 1.805.547h.027z"/></svg>
